images/companyLogos/nextsmartship.svg

<svg width="286" height="42" viewBox="0 0 286 42" fill="none" xmlns="http://www.w3.org/2000/svg">
<path d="M65.0807 10.9614L60.8157 32.2928H56.7637L48.8098 18.9453L46.1265 32.2928H41.2491L45.5142 10.9614H49.5992L57.5531 24.339L60.2033 10.9614H65.0807Z" fill="#0554F2"/>
<path d="M83.0955 25.3743H70.5404C70.6935 27.5984 72.0651 28.727 74.7754 28.727C76.4503 28.727 78.035 28.1777 79.1636 27.2022L81.1446 30.3418C79.2566 31.8665 76.7864 32.5358 74.2892 32.5358C69.1687 32.5358 65.9091 29.6394 65.9091 25.1912C65.9091 19.7046 69.8711 15.6526 75.5708 15.6526C80.3552 15.6526 83.3716 18.486 83.3716 22.8741C83.3686 23.7595 83.2486 24.612 83.0955 25.3743ZM70.8736 22.601H79.0105C79.0105 20.4369 77.5488 19.2183 75.3547 19.2183C73.0676 19.2183 71.5159 20.56 70.8736 22.601Z" fill="#0554F2"/>
<path d="M95.5936 24.0957L100.165 32.2927H95.1374L92.4541 27.2652L87.7298 32.2927H82.3062L90.5031 23.8826L86.145 15.8987H91.0824L93.6727 20.713L98.2439 15.8987H103.484L95.5936 24.0957Z" fill="#0554F2"/>
<path d="M109.929 26.503C109.869 26.7461 109.869 26.9592 109.869 27.1723C109.869 28.1778 110.418 28.7571 111.606 28.7571C112.246 28.7571 112.918 28.544 113.527 28.1778L114.23 31.5604C113.041 32.2928 111.579 32.5359 110.148 32.5359C107.101 32.5359 105.027 30.8281 105.027 27.9647C105.027 27.5084 105.09 27.0192 105.18 26.533L106.489 19.9207H103.959L104.691 16.262H107.221L108.014 12.27H112.768L111.976 16.262H116.061L115.328 19.9207H111.24L109.929 26.503Z" fill="#0554F2"/>
<path d="M116.046 30.2818L118.057 26.473C120.008 27.9047 122.568 28.697 125.095 28.697C127.808 28.697 129.513 27.7516 129.513 26.1968C129.513 22.7842 118.939 24.6121 118.939 17.8167C118.939 13.4286 122.778 10.5952 128.691 10.5952C131.554 10.5952 134.207 11.2345 136.065 12.4231L134.207 16.2019C132.593 15.1034 130.519 14.5571 128.418 14.5571C125.554 14.5571 123.876 15.6557 123.876 17.1774C123.846 20.6831 134.451 18.8552 134.451 25.4044C134.451 29.8226 130.549 32.659 124.606 32.659C121.136 32.659 117.846 31.6235 116.046 30.2818Z" fill="#0554F2"/>
<path d="M166.053 21.1993C166.053 21.8386 165.99 22.4779 165.84 23.2103L164.042 32.2927H159.288L161.026 23.5464C161.116 23.0872 161.149 22.691 161.149 22.2948C161.149 20.65 160.266 19.7646 158.558 19.7646C156.364 19.7646 154.839 21.0432 154.26 23.8796L152.585 32.2897H147.831L149.569 23.5434C149.662 23.0842 149.692 22.688 149.692 22.3248C149.692 20.65 148.807 19.7646 147.102 19.7646C144.878 19.7646 143.383 21.0432 142.774 23.9396L141.129 32.2897H136.374L139.637 15.8957H144.148L143.782 17.6035C145.214 16.2919 147.012 15.6526 148.933 15.6526C151.187 15.6526 153.048 16.568 153.96 18.3329C155.545 16.595 157.679 15.6526 160.206 15.6526C163.709 15.6556 166.053 17.5735 166.053 21.1993Z" fill="#0554F2"/>
<path d="M188.111 15.8987L184.851 32.2927H180.34L180.643 30.6779C179.334 31.8665 177.627 32.5358 175.616 32.5358C171.807 32.5358 168.544 29.8525 168.544 25.1912C168.544 19.6745 172.536 15.6526 177.597 15.6526C179.974 15.6526 181.862 16.415 182.93 18.1198L183.356 15.8957H188.111V15.8987ZM181.895 23.2103C181.895 20.9862 180.523 19.5845 178.146 19.5845C175.343 19.5845 173.332 21.7786 173.332 24.9781C173.332 27.2022 174.703 28.6039 177.08 28.6039C179.884 28.6069 181.895 26.4098 181.895 23.2103Z" fill="#0554F2"/>
<path d="M202.626 15.6558L201.773 20.0439C201.347 20.0139 201.071 19.9839 200.675 19.9839C197.872 19.9839 196.074 21.2925 195.464 24.372L193.88 32.2959H189.125L192.388 15.9019H196.899L196.503 17.8528C197.962 16.2621 199.973 15.6558 202.626 15.6558Z" fill="#0554F2"/>
<path d="M209.286 26.503C209.226 26.7461 209.226 26.9592 209.226 27.1723C209.226 28.1778 209.775 28.7571 210.964 28.7571C211.603 28.7571 212.276 28.544 212.885 28.1778L213.587 31.5604C212.399 32.2928 210.937 32.5359 209.505 32.5359C206.459 32.5359 204.385 30.8281 204.385 27.9647C204.385 27.5084 204.448 27.0192 204.538 26.533L205.846 19.9207H203.316L204.049 16.262H206.579L207.371 12.27H212.125L211.333 16.262H215.418L214.686 19.9207H210.601L209.286 26.503Z" fill="#0554F2"/>
<path d="M215.406 30.2818L217.417 26.473C219.368 27.9047 221.928 28.697 224.455 28.697C227.169 28.697 228.874 27.7516 228.874 26.1968C228.874 22.7842 218.299 24.6121 218.299 17.8167C218.299 13.4286 222.138 10.5952 228.051 10.5952C230.915 10.5952 233.568 11.2345 235.426 12.4231L233.568 16.2019C231.953 15.1034 229.879 14.5571 227.778 14.5571C224.915 14.5571 223.237 15.6557 223.237 17.1774C223.207 20.6831 233.811 18.8552 233.811 25.4044C233.811 29.8226 229.909 32.659 223.966 32.659C220.494 32.659 217.204 31.6235 215.406 30.2818Z" fill="#0554F2"/>
<path d="M254.503 21.2623C254.503 21.8716 254.44 22.5109 254.29 23.2132L252.462 32.2956H247.708L249.476 23.5194C249.566 23.1232 249.599 22.727 249.599 22.3908C249.599 20.716 248.683 19.7705 246.795 19.7705C244.388 19.7705 242.71 21.1122 242.134 23.9756L240.489 32.2956H235.735L240.246 9.68262H245.001L243.476 17.3934C244.908 16.2048 246.675 15.6555 248.533 15.6555C252.096 15.6555 254.503 17.6035 254.503 21.2623Z" fill="#0554F2"/>
<path d="M259.714 15.8987H264.438L261.178 32.2927H256.454L259.714 15.8987ZM260.11 11.1444C260.11 9.55964 261.358 8.31104 263.249 8.31104C264.924 8.31104 266.053 9.34654 266.053 10.6882C266.053 12.426 264.774 13.6146 262.883 13.6146C261.208 13.6116 260.11 12.5161 260.11 11.1444Z" fill="#0554F2"/>
<path d="M285.025 22.9973C285.025 28.514 281.033 32.536 275.943 32.536C273.565 32.536 271.708 31.7736 270.639 30.0988L269.024 38.2058H264.27L268.721 15.8989H273.232L272.899 17.5137C274.208 16.3251 275.916 15.6558 277.927 15.6558C281.732 15.6558 285.025 18.3361 285.025 22.9973ZM280.211 23.2104C280.211 20.9864 278.839 19.5847 276.462 19.5847C273.688 19.5847 271.678 21.7787 271.678 24.9783C271.678 27.2024 273.019 28.6041 275.396 28.6041C278.2 28.6071 280.211 26.41 280.211 23.2104Z" fill="#0554F2"/>
<path d="M32.0166 0.105053C32.0166 0.147074 31.9926 0.180092 31.9596 0.195093C31.9536 0.198101 31.9476 0.1981 31.9446 0.201093C31.9416 0.201093 31.9416 0.201093 31.9386 0.201093C31.2963 0.420203 30.738 0.81639 30.3118 1.32664C30.3058 1.33865 30.2968 1.34465 30.2938 1.35065L30.1017 1.60877C30.1017 1.61477 30.0957 1.62078 30.0927 1.62678L17.1173 19.2574L17.0993 19.2784L17.0303 19.3714C16.9432 19.5125 16.8922 19.6746 16.8922 19.8547C16.8922 20.3559 17.2974 20.7611 17.7987 20.7611H29.3273C30.2667 20.7611 31.0291 21.5235 31.0291 22.4629C31.0291 22.8081 30.9271 23.1263 30.753 23.3934C30.717 23.4474 30.6779 23.4984 30.6329 23.5525L18.453 40.0395L18.402 40.1085C18.3059 40.2526 18.2459 40.4267 18.2459 40.6158C18.2459 40.9099 18.387 41.1741 18.6061 41.3391L18.6091 41.3422C18.6091 41.3422 18.6121 41.3422 18.6121 41.3452C18.6361 41.3632 18.6511 41.3932 18.6511 41.4232C18.6511 41.4742 18.6121 41.5162 18.5611 41.5222H0.0900448C0.0390229 41.5192 0 41.4742 0 41.4232C0 41.3842 0.0240124 41.3482 0.0570285 41.3332C0.0660329 41.3302 0.0720381 41.3272 0.078041 41.3242C0.71135 41.108 1.26662 40.7179 1.68683 40.2166C1.69283 40.2106 1.69883 40.2016 1.70483 40.1986L1.91194 39.9165C1.91494 39.9135 1.91794 39.9105 1.92394 39.9015L14.9143 22.2439L14.9653 22.1718C15.0613 22.0278 15.1214 21.8537 15.1214 21.6676C15.1214 21.1663 14.7162 20.7611 14.2149 20.7611H2.69231C1.75285 20.7611 0.990479 19.9988 0.990479 19.0593C0.990479 18.7111 1.09553 18.384 1.27262 18.1168C1.30563 18.0658 1.34165 18.0178 1.37767 17.9728L13.5576 1.48272L13.6086 1.41369C13.7047 1.26961 13.7647 1.09553 13.7647 0.906439C13.7647 0.6093 13.6236 0.348174 13.4045 0.183085L13.4015 0.180081C13.3775 0.162075 13.3595 0.132054 13.3595 0.0990443C13.3595 0.0450179 13.4015 0.00299246 13.4556 0H31.9206C31.9746 0.00600293 32.0166 0.0510267 32.0166 0.105053Z" fill="#0554F2"/>
</svg>

<svg fill="none" xmlns="http://www.w3.org/2000/svg" viewBox="0 0 286 42">
  <path
    d="m65.08 10.961-4.264 21.332h-4.052L48.81 18.945l-2.684 13.348H41.25l4.265-21.332H49.6l7.954 13.378 2.65-13.378h4.878ZM83.096 25.374H70.54c.153 2.224 1.525 3.353 4.235 3.353 1.675 0 3.26-.55 4.389-1.525l1.98 3.14c-1.887 1.524-4.358 2.194-6.855 2.194-5.12 0-8.38-2.897-8.38-7.345 0-5.486 3.962-9.538 9.662-9.538 4.784 0 7.8 2.833 7.8 7.221a12.98 12.98 0 0 1-.275 2.5Zm-12.222-2.773h8.136c0-2.164-1.461-3.383-3.655-3.383-2.287 0-3.84 1.342-4.481 3.383ZM95.594 24.096l4.571 8.197h-5.028l-2.683-5.028-4.724 5.028h-5.424l8.197-8.41-4.358-7.984h4.937l2.59 4.814 4.572-4.814h5.24l-7.89 8.197ZM109.929 26.503c-.06.243-.06.456-.06.67 0 1.005.549 1.584 1.737 1.584.64 0 1.312-.213 1.921-.58l.703 3.383c-1.189.733-2.651.976-4.082.976-3.047 0-5.121-1.708-5.121-4.571 0-.457.063-.946.153-1.432l1.309-6.612h-2.53l.732-3.659h2.53l.793-3.992h4.754l-.792 3.992h4.085l-.733 3.659h-4.088l-1.311 6.582ZM116.046 30.282l2.011-3.809c1.951 1.432 4.511 2.224 7.038 2.224 2.713 0 4.418-.945 4.418-2.5 0-3.413-10.574-1.585-10.574-8.38 0-4.388 3.839-7.222 9.752-7.222 2.863 0 5.516.64 7.374 1.828l-1.858 3.779c-1.614-1.099-3.688-1.645-5.789-1.645-2.864 0-4.542 1.099-4.542 2.62-.03 3.506 10.575 1.678 10.575 8.227 0 4.419-3.902 7.255-9.845 7.255-3.47 0-6.76-1.035-8.56-2.377ZM166.053 21.2c0 .639-.063 1.278-.213 2.01l-1.798 9.083h-4.754l1.738-8.747c.09-.459.123-.855.123-1.251 0-1.645-.883-2.53-2.591-2.53-2.194 0-3.719 1.278-4.298 4.115l-1.675 8.41h-4.754l1.738-8.747c.093-.459.123-.855.123-1.218 0-1.675-.885-2.56-2.59-2.56-2.224 0-3.719 1.278-4.328 4.175l-1.645 8.35h-4.755l3.263-16.394h4.511l-.366 1.707c1.432-1.311 3.23-1.95 5.151-1.95 2.254 0 4.115.915 5.027 2.68 1.585-1.738 3.719-2.68 6.246-2.68 3.503.003 5.847 1.92 5.847 5.546ZM188.111 15.899l-3.26 16.394h-4.511l.303-1.615c-1.309 1.188-3.016 1.858-5.027 1.858-3.809 0-7.072-2.684-7.072-7.345 0-5.517 3.992-9.538 9.053-9.538 2.377 0 4.265.762 5.333 2.467l.426-2.224h4.755v.003Zm-6.216 7.311c0-2.224-1.372-3.626-3.749-3.626-2.803 0-4.814 2.195-4.814 5.394 0 2.224 1.371 3.626 3.748 3.626 2.804.003 4.815-2.194 4.815-5.394ZM202.626 15.656l-.853 4.388c-.426-.03-.702-.06-1.098-.06-2.803 0-4.601 1.308-5.211 4.388l-1.584 7.924h-4.755l3.263-16.394h4.511l-.396 1.95c1.459-1.59 3.47-2.196 6.123-2.196ZM209.286 26.503c-.06.243-.06.456-.06.67 0 1.005.549 1.584 1.738 1.584.639 0 1.312-.213 1.921-.58l.702 3.383c-1.188.733-2.65.976-4.082.976-3.046 0-5.12-1.708-5.12-4.571 0-.457.063-.946.153-1.432l1.308-6.612h-2.53l.733-3.659h2.53l.792-3.992h4.754l-.792 3.992h4.085l-.732 3.659h-4.085l-1.315 6.582ZM215.406 30.282l2.011-3.809c1.951 1.432 4.511 2.224 7.038 2.224 2.714 0 4.419-.945 4.419-2.5 0-3.413-10.575-1.585-10.575-8.38 0-4.388 3.839-7.222 9.752-7.222 2.864 0 5.517.64 7.375 1.828l-1.858 3.779c-1.615-1.099-3.689-1.645-5.79-1.645-2.863 0-4.541 1.099-4.541 2.62-.03 3.506 10.574 1.678 10.574 8.227 0 4.419-3.902 7.255-9.845 7.255-3.472 0-6.762-1.035-8.56-2.377ZM254.503 21.262c0 .61-.063 1.249-.213 1.951l-1.828 9.083h-4.754l1.768-8.777c.09-.396.123-.792.123-1.128 0-1.675-.916-2.62-2.804-2.62-2.407 0-4.085 1.341-4.661 4.205l-1.645 8.32h-4.754l4.511-22.613h4.755l-1.525 7.71c1.432-1.188 3.199-1.738 5.057-1.738 3.563 0 5.97 1.949 5.97 5.607ZM259.714 15.899h4.724l-3.26 16.394h-4.724l3.26-16.394Zm.396-4.755c0-1.584 1.248-2.833 3.139-2.833 1.675 0 2.804 1.036 2.804 2.377 0 1.738-1.279 2.927-3.17 2.927-1.675-.003-2.773-1.099-2.773-2.47ZM285.025 22.997c0 5.517-3.992 9.539-9.082 9.539-2.378 0-4.235-.762-5.304-2.437l-1.615 8.107h-4.754l4.451-22.307h4.511l-.333 1.615c1.309-1.189 3.017-1.858 5.028-1.858 3.805 0 7.098 2.68 7.098 7.341Zm-4.814.213c0-2.224-1.372-3.625-3.749-3.625-2.774 0-4.784 2.194-4.784 5.393 0 2.224 1.341 3.626 3.718 3.626 2.804.003 4.815-2.194 4.815-5.394ZM32.017.105a.097.097 0 0 1-.057.09c-.006.003-.012.003-.015.006h-.006c-.643.22-1.201.615-1.627 1.126-.006.012-.015.018-.018.024l-.192.258c0 .006-.006.012-.01.018l-12.975 17.63-.018.021-.069.093a.909.909 0 0 0 .769 1.39h11.528a1.702 1.702 0 0 1 1.306 2.791L18.453 40.04l-.051.07a.905.905 0 0 0 .204 1.23l.003.003s.003 0 .003.003a.1.1 0 0 1 .04.078.1.1 0 0 1-.09.1H.09a.098.098 0 0 1-.09-.1.1.1 0 0 1 .057-.09 3.642 3.642 0 0 0 1.63-1.117c.006-.005.012-.014.018-.017l.207-.282a.082.082 0 0 0 .012-.016l12.99-17.657.051-.072a.906.906 0 0 0-.75-1.41H2.692a1.702 1.702 0 0 1-1.42-2.645c.034-.051.07-.1.106-.144l12.18-16.49.05-.07a.901.901 0 0 0-.204-1.23L13.402.18A.104.104 0 0 1 13.36.1.1.1 0 0 1 13.456 0H31.92a.107.107 0 0 1 .096.105Z"
    fill="#0554F2"
  />
</svg>
